src/pos-icons/map-marker-multiple-outline.svg

<svg height="24" viewBox="0 0 24 24" width="24" xmlns="http://www.w3.org/2000/svg"><path d="m11.5 9c0-1.38 1.12-2.5 2.5-2.5 1.1 0 2.03.71 2.37 1.69.08.26.13.53.13.81 0 1.38-1.12 2.5-2.5 2.5-1.09 0-2-.69-2.36-1.66-.09-.26-.14-.55-.14-.84m-6.5 0c0 4.5 5.08 10.66 6 11.81l-1 1.19s-7-7.75-7-13c0-3.17 2.11-5.85 5-6.71-1.84 1.65-3 4.04-3 6.71m9-7c3.86 0 7 3.13 7 7 0 5.25-7 13-7 13s-7-7.75-7-13c0-3.87 3.14-7 7-7m0 2c-2.76 0-5 2.24-5 5 0 1 0 3 5 9.71 5-6.71 5-8.71 5-9.71 0-2.76-2.24-5-5-5z"/></svg>

<?xml version="1.0" encoding="UTF-8"?><!DOCTYPE svg PUBLIC "-//W3C//DTD SVG 1.1//EN" "http://www.w3.org/Graphics/SVG/1.1/DTD/svg11.dtd"><svg xmlns="http://www.w3.org/2000/svg" xmlns:xlink="http://www.w3.org/1999/xlink" version="1.1" id="mdi-map-marker-multiple-outline" width="24" height="24" viewBox="0 0 24 24"><path d="M11.5 9C11.5 7.62 12.62 6.5 14 6.5C15.1 6.5 16.03 7.21 16.37 8.19C16.45 8.45 16.5 8.72 16.5 9C16.5 10.38 15.38 11.5 14 11.5C12.91 11.5 12 10.81 11.64 9.84C11.55 9.58 11.5 9.29 11.5 9M5 9C5 13.5 10.08 19.66 11 20.81L10 22C10 22 3 14.25 3 9C3 5.83 5.11 3.15 8 2.29C6.16 3.94 5 6.33 5 9M14 2C17.86 2 21 5.13 21 9C21 14.25 14 22 14 22C14 22 7 14.25 7 9C7 5.13 10.14 2 14 2M14 4C11.24 4 9 6.24 9 9C9 10 9 12 14 18.71C19 12 19 10 19 9C19 6.24 16.76 4 14 4Z" /></svg>
